public/footer/cafe.svg

<svg width="32" height="32" viewBox="0 0 32 32" fill="none" xmlns="http://www.w3.org/2000/svg">
<path d="M10.4648 11.3873C10.4648 11.1671 11.4637 7.34059 14.1223 7.07422H19.3574C19.3574 7.07422 18.1998 11.4334 16.0688 11.3873H10.4648Z" fill="#979797"/>
<path d="M21.2987 12.9397H21.0477H7.19141V17.9904C7.19141 21.8169 10.2956 24.916 14.117 24.916C17.2314 24.916 19.8644 22.8619 20.7352 20.0343H21.2526H21.2884C23.2298 20.0138 24.8024 18.431 24.8024 16.4844C24.8024 14.5379 23.235 12.9551 21.2884 12.9346L21.2987 12.9397ZM21.2628 18.5232C21.1808 18.5232 21.104 18.5078 21.022 18.4976C21.0323 18.3285 21.0477 18.1595 21.0477 17.9904V14.4764C21.1194 14.4713 21.1911 14.4559 21.2628 14.4559C22.3846 14.4559 23.2964 15.3677 23.2964 16.4896C23.2964 17.6114 22.3846 18.5232 21.2628 18.5232Z" fill="#979797"/>
</svg>

<svg width="32" height="32" fill="none" xmlns="http://www.w3.org/2000/svg"><path d="M10.465 11.387c0-.22.999-4.046 3.657-4.313h5.235s-1.157 4.36-3.288 4.313h-5.604zM21.299 12.94H7.19v5.05a6.927 6.927 0 0 0 13.544 2.044h.553a3.55 3.55 0 0 0 0-7.1l.01.006zm-.036 5.583c-.082 0-.159-.015-.241-.025.01-.17.026-.338.026-.508v-3.514c.071-.005.143-.02.215-.02 1.122 0 2.033.912 2.033 2.034a2.035 2.035 0 0 1-2.033 2.033z" fill="#979797"/></svg>
